;FLAVOR:Marlin
;TIME:9695
;Filament used: 5.36036m
;Layer height: 0.13125
;MINX:29.9
;MINY:28.604
;MINZ:0.306
;MAXX:90.1
;MAXY:91.397
;MAXZ:19.784
;Generated with Cura_SteamEngine 5.2.1
M140 S60
M105
M190 S60
M104 S205
M105
M109 S205
M82 ;absolute extrusion mode
G21;(metric values)
G90;(absolute positioning)
M82;(set extruder to absolute mode)
M107;(start with the fan off)
G28;(Home the printer)
G92 E0;(Reset the extruder to 0)
G0 Z5 E5 F500;(Move up and prime the nozzle)
G0 X-1 Z0;(Move outside the printable area)
G1 Y60 E8 F500;(Draw a priming/wiping line to the rear)
G1 X-1;(Move a little closer to the print area)
G1 Y10 E16 F500;(draw more priming/wiping)
G1 E15 F250;(Small retract)
G92 E0;(Zero the extruder)
G92 E0
G92 E0
G1 F2400 E-4.5
;LAYER_COUNT:144
;LAYER:-6
M107
G0 F7200 X30.479 Y30.967 Z0.306
;TYPE:SUPPORT-INTERFACE
G1 F2400 E0
G1 F1125 X30.124 Y31.775 E0.08982
G1 X29.94 Y32.603 E0.17615
G1 X29.902 Y33.278 E0.24496
G1 X29.9 Y52.474 E2.19865
G1 X29.978 Y53.331 E2.28623
G1 X30.167 Y54.013 E2.35826
G1 X30.395 Y54.546 E2.41726
G1 X30.692 Y55.052 E2.47697
G1 X31.037 Y55.504 E2.53485
G1 X31.592 Y56.06 E2.6148
G1 X31.592 Y56.077 E2.61653
G1 X32.033 Y56.519 E2.68008
G1 X32.457 Y57.091 E2.75254
G1 X32.788 Y57.686 E2.82184
G1 X33.037 Y58.314 E2.8906
G1 X33.209 Y58.973 E2.95991
G1 X33.297 Y59.664 E3.03081
G1 X33.297 Y60.347 E3.10032
G1 X33.209 Y61.029 E3.17031
G1 X33.034 Y61.696 E3.24049
G1 X32.789 Y62.311 E3.30787
G1 X32.451 Y62.918 E3.37858
G1 X32.029 Y63.487 E3.45068
G1 X31.595 Y63.944 E3.51482
G1 X31.274 Y64.242 E3.5594
G1 X30.883 Y64.679 E3.61908
G1 X30.477 Y65.277 E3.69264
G1 X30.125 Y66.077 E3.78159
G1 X29.939 Y66.909 E3.86836
G1 X29.9 Y67.583 E3.93707
G1 X29.901 Y86.769 E5.88975
G1 X29.963 Y87.454 E5.95975
G1 X30.113 Y88.197 E6.0369
G1 X30.4 Y88.862 E6.11061
G1 X30.768 Y89.492 E6.18487
G1 X31.249 Y90.038 E6.25892
G1 X31.677 Y90.417 E6.31711
G1 X32.282 Y90.83 E6.39166
G1 X33.08 Y91.174 E6.4801
G1 X33.922 Y91.361 E6.56789
G1 X34.608 Y91.397 E6.6378
G1 X44.508 Y91.359 E7.64539
G1 X75.228 Y91.397 E10.77195
G1 X76.105 Y91.317 E10.86158
G1 X76.768 Y91.13 E10.93169
G1 X77.31 Y90.9 E10.99162
G1 X77.813 Y90.607 E11.05086
G1 X78.264 Y90.262 E11.10865
G1 X78.789 Y89.744 E11.18371
G1 X79.274 Y89.03 E11.27156
G1 X79.626 Y88.23 E11.36052
G1 X79.813 Y87.394 E11.4477
G1 X79.851 Y86.691 E11.51936
G1 X79.852 Y82.121 E11.98447
G1 X79.975 Y81.315 E12.06745
G1 X80.159 Y80.67 E12.13572
G1 X80.426 Y80.041 E12.20526
G1 X80.786 Y79.43 E12.27744
G1 X81.193 Y78.902 E12.34529
G1 X81.695 Y78.405 E12.41719
G1 X82.218 Y77.999 E12.48457
G1 X82.824 Y77.644 E12.55605
G1 X83.428 Y77.384 E12.62298
G1 X84.058 Y77.201 E12.68975
G1 X84.735 Y77.093 E12.75952
G1 X85.911 Y77.062 E12.87925
G1 X86.447 Y76.982 E12.93441
G1 X87.022 Y76.823 E12.99512
G1 X87.557 Y76.594 E13.05435
G1 X88.052 Y76.305 E13.11269
G1 X88.627 Y75.867 E13.18625
G1 X89.113 Y75.322 E13.26057
G1 X89.438 Y74.85 E13.3189
G1 X89.784 Y74.179 E13.39573
G1 X89.976 Y73.506 E13.46696
G1 X90.071 Y72.913 E13.52809
G1 X90.1 Y72.415 E13.57886
G1 X90.1 Y47.514 E16.11318
G1 X90.028 Y46.666 E16.1998
G1 X89.843 Y45.995 E16.27064
G1 X89.619 Y45.459 E16.32976
G1 X89.326 Y44.95 E16.38953
G1 X88.971 Y44.481 E16.4494
G1 X88.579 Y44.081 E16.5064
G1 X88.121 Y43.718 E16.56588
G1 X87.618 Y43.415 E16.62564
G1 X86.962 Y43.123 E16.69872
G1 X86.262 Y42.962 E16.77183
G1 X85.669 Y42.9 E16.83251
G1 X85.224 Y42.899 E16.8778
G1 X84.32 Y42.817 E16.97018
G1 X83.643 Y42.655 E17.04103
G1 X83.001 Y42.406 E17.11111
G1 X82.395 Y42.082 E17.18105
G1 X81.84 Y41.686 E17.25044
G1 X81.325 Y41.208 E17.32195
G1 X80.877 Y40.667 E17.39344
G1 X80.532 Y40.126 E17.45875
G1 X80.231 Y39.491 E17.53027
G1 X80.021 Y38.851 E17.59882
G1 X79.896 Y38.202 E17.66609
G1 X79.85 Y37.526 E17.73505
G1 X79.85 Y33.227 E18.17258
G1 X79.771 Y32.358 E18.26139
G1 X79.583 Y31.681 E18.3329
G1 X79.291 Y31 E18.40831
G1 X78.888 Y30.404 E18.48154
G1 X78.508 Y29.969 E18.54032
G1 X78.077 Y29.587 E18.59894
G1 X77.596 Y29.258 E18.65825
G1 X77.086 Y28.996 E18.7166
G1 X76.531 Y28.796 E18.77664
G1 X75.842 Y28.64 E18.84854
G1 X75.165 Y28.604 E18.91754
G1 X44.532 Y28.642 E22.03525
G1 X34.538 Y28.604 E23.05241
G1 X33.647 Y28.683 E23.14344
G1 X32.986 Y28.869 E23.21333
G1 X32.443 Y29.1 E23.27339
G1 X31.947 Y29.388 E23.33176
G1 X31.488 Y29.738 E23.39051
G1 X30.969 Y30.252 E23.46485
G1 X30.626 Y30.752 E23.52656
G0 F1012.5 X30.479 Y30.967
G0 F7200 X30.315 Y33.04
G1 F1125 X34.334 Y29.022 E24.10496
G0 F7200 X36.608 Y29.011
G1 F1125 X30.301 Y35.317 E25.01267
G0 F7200 X30.301 Y37.58
G1 F1125 X38.862 Y29.019 E26.24488
G0 F7200 X41.116 Y29.028
G1 F1125 X30.301 Y39.843 E27.80152
G0 F7200 X30.301 Y42.106
G1 F1125 X43.37 Y29.037 E29.68258
G0 F7200 X45.629 Y29.04
G1 F1125 X30.3 Y44.369 E31.88893
G0 F7200 X30.3 Y46.632
G1 F1125 X47.895 Y29.038 E34.42136
G0 F7200 X50.16 Y29.035
G1 F1125 X30.3 Y48.895 E37.27987
G0 F7200 X30.3 Y51.157
G1 F1125 X52.426 Y29.032 E40.46446
G0 F7200 X54.691 Y29.029
G1 F1125 X30.392 Y53.328 E43.96188
G0 F7200 X31.082 Y54.901
G1 F1125 X56.957 Y29.026 E47.68615
G0 F7200 X59.223 Y29.023
G1 F1125 X32.162 Y56.084 E51.58112
G0 F7200 X33.095 Y57.414
G1 F1125 X61.488 Y29.021 E55.66781
G0 F7200 X63.754 Y29.018
G1 F1125 X33.632 Y59.14 E60.00336
G0 F7200 X33.485 Y61.549
G1 F1125 X66.019 Y29.015 E64.68608
G0 F7200 X68.285 Y29.012
G1 F1125 X30.338 Y66.959 E70.14791
G0 F7200 X30.3 Y69.259
G1 F1125 X70.55 Y29.009 E75.94121
G0 F7200 X72.816 Y29.006
G1 F1125 X30.3 Y71.522 E82.06067
G0 F7200 X30.3 Y73.785
G1 F1125 X75.082 Y29.004 E88.5062
G0 F7200 X76.965 Y29.383
G1 F1125 X30.3 Y76.047 E95.22276
G0 F7200 X30.3 Y78.31
G1 F1125 X78.286 Y30.324 E102.12953
G0 F7200 X79.16 Y31.713
G1 F1125 X30.3 Y80.573 E109.1621
G0 F7200 X30.3 Y82.836
G1 F1125 X79.449 Y33.687 E116.23627
G0 F7200 X79.449 Y35.95
G1 F1125 X30.3 Y85.098 E123.31036
G0 F7200 X30.352 Y87.31
G1 F1125 X79.494 Y38.168 E130.38351
G0 F7200 X79.994 Y39.93
G1 F1125 X30.938 Y88.987 E137.44436
G0 F7200 X32.02 Y90.167
G1 F1125 X80.884 Y41.303 E144.47751
G0 F7200 X82.092 Y42.357
G1 F1125 X33.576 Y90.873 E151.46056
G0 F7200 X35.72 Y90.992
G1 F1125 X83.647 Y43.066 E158.35877
G0 F7200 X85.673 Y43.302
G1 F1125 X37.992 Y90.983 E165.22164
G0 F7200 X40.264 Y90.974
G1 F1125 X87.455 Y43.783 E172.01398
G0 F7200 X88.705 Y44.795
G1 F1125 X42.535 Y90.966 E178.65944
G0 F7200 X44.805 Y90.959
G1 F1125 X89.5 Y46.263 E185.0926
G0 F7200 X89.698 Y48.328
G1 F1125 X47.065 Y90.962 E191.22897
G0 F7200 X49.324 Y90.965
G1 F1125 X89.698 Y50.591 E197.04012
G0 F7200 X89.698 Y52.854
G1 F1125 X51.584 Y90.967 E202.52591
G0 F7200 X53.844 Y90.97
G1 F1125 X89.698 Y55.116 E207.68648
G0 F7200 X89.698 Y57.379
G1 F1125 X56.104 Y90.973 E212.52177
G0 F7200 X58.364 Y90.976
G1 F1125 X89.698 Y59.642 E217.03177
G0 F7200 X89.698 Y61.905
G1 F1125 X60.624 Y90.979 E221.21648
G0 F7200 X62.884 Y90.982
G1 F1125 X89.698 Y64.167 E225.07597
G0 F7200 X89.698 Y66.43
G1 F1125 X65.144 Y90.984 E228.6101
G0 F7200 X67.404 Y90.987
G1 F1125 X89.698 Y68.693 E231.81894
G0 F7200 X89.698 Y70.956
G1 F1125 X83.792 Y76.862 E232.66901
G0 F7200 X86.321 Y76.595
G1 F1125 X89.601 Y73.316 E233.14104
G1 F2400 E228.64104
G0 F7200 X79.647 Y81.007
G1 F2400 E233.14104
G1 F1125 X69.664 Y90.99 E234.57792
G0 F7200 X71.924 Y90.993
M104 S200
G1 F1125 X79.452 Y83.464 E235.66152
G0 F7200 X79.451 Y85.728
G1 F1125 X74.183 Y90.996 E236.41976
G0 F7200 X76.732 Y90.71
G1 F1125 X79.169 Y88.273 E236.77052
G1 F2400 E232.27052
G0 F90 X79.169 Y88.273 Z0.525
G0 F7200 X89.558 Y46.092
;TIME_ELAPSED:156.429648
;LAYER:-5
;TYPE:SUPPORT
G1 F2400 E236.77052
G1 F1125 X89.346 Y45.583 E236.80567
G1 X89.069 Y45.107 E236.84077
G1 X88.743 Y44.677 E236.87516
G1 X88.278 Y44.201 E236.91757
G1 X87.708 Y43.808 E236.9617
G1 X87.121 Y43.502 E237.00389
G1 X86.632 Y43.357 E237.0364
G1 X89.632 Y46.357 E237.3068
G1 X89.73 Y46.707 E237.32996
G1 X89.799 Y47.528 E237.38247
G1 X89.799 Y47.797 E237.39962
G1 X85.2 Y43.198 E237.81415
G1 X84.241 Y43.11 E237.87553
G1 X83.707 Y42.977 E237.9106
G1 X89.799 Y49.07 E238.45975
G1 X89.799 Y50.343 E238.54088
G1 X68.368 Y28.912 E240.47255
G1 X67.098 Y28.914 E240.5535
G1 X89.799 Y51.615 E242.59964
G1 X89.799 Y52.888 E242.68077
G1 X65.826 Y28.915 E244.84157
G1 X64.555 Y28.917 E244.92258
G1 X89.799 Y54.161 E247.19793
G1 X89.799 Y55.434 E247.27907
G1 X63.283 Y28.918 E249.66907
G1 X62.013 Y28.92 E249.75002
G1 X89.799 Y56.707 E252.25454
G1 X89.799 Y57.979 E252.33561
G1 X60.741 Y28.922 E254.95469
G1 X59.47 Y28.923 E255.0357
G1 X89.799 Y59.252 E257.76939
G1 X89.799 Y60.525 E257.85053
G1 X58.199 Y28.924 E260.69882
G1 X56.928 Y28.927 E260.77983
G1 X89.799 Y61.798 E263.74264
G1 X89.799 Y63.071 E263.82377
G1 X55.657 Y28.928 E266.90119
G1 X54.385 Y28.929 E266.98226
G1 X89.799 Y64.343 E270.17429
G1 X89.799 Y65.616 E270.25542
G1 X53.114 Y28.931 E273.56201
G1 X51.843 Y28.933 E273.64301
G1 X89.799 Y66.889 E277.06416
G1 X89.799 Y68.162 E277.14529
G1 X50.572 Y28.934 E280.68105
G1 X49.3 Y28.936 E280.76212
G1 X89.799 Y69.435 E284.41247
G1 X89.799 Y70.707 E284.49355
G1 X48.029 Y28.937 E288.25846
G1 X46.758 Y28.939 E288.33947
G1 X89.799 Y71.98 E292.21895
G1 X89.799 Y72.723 E292.26631
G1 X89.725 Y73.179 E292.29575
G1 X45.487 Y28.941 E296.28312
G1 X44.214 Y28.941 E296.36426
G1 X89.449 Y74.175 E300.44145
G1 X89.176 Y74.703 E300.47933
G1 X88.983 Y74.982 E300.50095
G1 X42.936 Y28.936 E304.65133
G1 X41.659 Y28.931 E304.73272
G1 X88.396 Y75.668 E308.94534
G1 X87.892 Y76.052 E308.98572
G1 X87.649 Y76.194 E309.00366
G1 X40.381 Y28.926 E313.26414
G1 X39.103 Y28.921 E313.34559
G1 X86.777 Y76.595 E317.64267
G1 X86.016 Y76.761 E317.69231
G1 X85.678 Y76.769 E317.71386
G1 X37.825 Y28.915 E322.02711
G1 X36.547 Y28.91 E322.10856
G1 X84.468 Y76.831 E326.4279
G1 X84.018 Y76.902 E326.45693
G1 X83.433 Y77.069 E326.49571
G1 X35.269 Y28.905 E330.83695
G1 X34.562 Y28.902 E330.88201
G1 X34.04 Y28.948 E330.91541
G1 X82.546 Y77.455 E335.28752
G1 X82.044 Y77.753 E335.32472
G1 X81.777 Y77.959 E335.34622
G1 X33.004 Y29.185 E339.74239
G1 X32.564 Y29.373 E339.77289
G1 X32.157 Y29.611 E339.80294
G1 X81.108 Y78.563 E344.21516
G1 X80.965 Y78.706 E344.22805
G1 X80.535 Y79.263 E344.2729
G1 X31.46 Y30.187 E348.69629
G1 X31.201 Y30.444 E348.71955
G1 X30.891 Y30.891 E348.75422
G1 X80.082 Y80.082 E353.18803
G1 X79.878 Y80.561 E353.22121
G1 X79.746 Y81.019 E353.25159
G1 X30.467 Y31.739 E357.69337
G1 X30.319 Y32.241 E357.72673
G1 X30.231 Y32.777 E357.76135
G1 X79.55 Y82.097 E362.20674
G1 X79.55 Y83.369 E362.28781
G1 X30.199 Y34.018 E366.73604
G1 X30.199 Y35.29 E366.81711
G1 X79.55 Y84.642 E371.26538
G1 X79.55 Y85.914 E371.34645
G1 X30.199 Y36.563 E375.79468
G1 X30.199 Y37.836 E375.87582
G1 X79.526 Y87.162 E380.32184
G1 X79.439 Y87.73 E380.35846
G1 X79.3 Y88.21 E380.39031
G1 X30.199 Y39.109 E384.816
G1 X30.199 Y40.382 E384.89714
G1 X78.886 Y89.068 E389.28547
G1 X78.553 Y89.555 E389.32307
G1 X78.324 Y89.779 E389.34349
G1 X30.199 Y41.654 E393.68122
G1 X30.199 Y42.927 E393.76235
G1 X77.635 Y90.363 E398.03797
G1 X77.53 Y90.444 E398.04642
G1 X76.806 Y90.807 E398.09804
G1 X30.199 Y44.2 E402.29894
G1 X30.199 Y45.473 E402.38008
G1 X75.77 Y91.044 E406.4876
G1 X75.202 Y91.096 E406.52395
G1 X74.548 Y91.095 E406.56563
G1 X30.199 Y46.746 E410.56301
G1 X30.199 Y48.018 E410.64408
G1 X73.274 Y91.093 E414.52662
G1 X72 Y91.092 E414.60782
G1 X30.199 Y49.291 E418.37553
G1 X30.199 Y50.564 E418.45667
G1 X70.726 Y91.09 E422.10951
G1 X69.451 Y91.088 E422.19077
G1 X30.199 Y51.837 E425.72868
G1 X30.199 Y52.448 E425.76762
G1 X30.266 Y53.177 E425.81428
G1 X68.177 Y91.087 E429.23133
G1 X66.902 Y91.085 E429.31259
G1 X32.672 Y56.855 E432.39789
G1 X33.062 Y57.563 E432.44941
G1 X33.328 Y58.233 E432.49536
G1 X33.52 Y58.976 E432.54427
G1 X65.628 Y91.084 E435.43831
G1 X64.353 Y91.082 E435.51957
G1 X33.601 Y60.33 E438.29139
G1 X33.503 Y61.083 E438.33978
G1 X33.415 Y61.417 E438.3618
G1 X63.079 Y91.081 E441.03555
G1 X61.805 Y91.079 E441.11674
G1 X33.097 Y62.371 E443.70433
G1 X32.643 Y63.19 E443.76401
G1 X60.531 Y91.078 E446.27768
G1 X59.256 Y91.076 E446.35894
G1 X32.078 Y63.898 E448.80862
G1 X31.425 Y64.518 E448.86601
G1 X57.982 Y91.074 E451.25967
G1 X56.707 Y91.073 E451.34093
G1 X30.857 Y65.222 E453.67095
G1 X30.505 Y65.911 E453.72026
G1 X30.452 Y66.091 E453.73222
G1 X55.433 Y91.071 E455.98383
G1 X54.158 Y91.069 E456.06509
G1 X30.224 Y67.135 E458.22237
G1 X30.199 Y67.583 E458.25097
G1 X30.199 Y68.383 E458.30195
G1 X52.884 Y91.068 E460.34666
G1 X51.61 Y91.066 E460.42785
G1 X30.199 Y69.656 E462.35768
G1 X30.199 Y70.929 E462.43881
G1 X50.336 Y91.065 E464.25381
G1 X49.061 Y91.064 E464.33507
G1 X30.199 Y72.201 E466.03523
G1 X30.199 Y73.474 E466.11637
G1 X47.786 Y91.061 E467.70156
G1 X46.512 Y91.06 E467.78276
G1 X30.199 Y74.747 E469.25312
G1 X30.199 Y76.02 E469.33426
G1 X45.238 Y91.059 E470.68979
G1 X43.966 Y91.059 E470.77086
G1 X30.2 Y77.293 E472.01165
G1 X30.2 Y78.566 E472.09279
G1 X42.698 Y91.064 E473.21929
G1 X41.43 Y91.069 E473.30011
G1 X30.2 Y79.839 E474.31232
G1 X30.2 Y81.112 E474.39345
G1 X40.162 Y91.074 E475.29137
G1 X38.895 Y91.079 E475.37212
G1 X30.2 Y82.385 E476.1558
G1 X30.2 Y83.657 E476.23687
G1 X37.627 Y91.084 E476.9063
G1 X36.359 Y91.089 E476.98711
G1 X30.2 Y84.93 E477.54225
G1 X30.2 Y86.203 E477.62339
G1 X35.091 Y91.094 E478.06424
G1 X34.624 Y91.096 E478.094
G1 X34.103 Y91.07 E478.12725
G1 X33.736 Y91.011 E478.15094
G1 X30.272 Y87.548 E478.46312
G1 X30.279 Y87.616 E478.46748
G1 X30.46 Y88.241 E478.50895
G1 X30.663 Y88.719 E478.54205
G1 X31.008 Y89.311 E478.58572
G1 X31.459 Y89.82 E478.62906
G1 X31.973 Y90.28 E478.67302
G1 X32.676 Y90.691 E478.72492
G1 X33.329 Y90.926 E478.76916
G0 F1012.5 X33.434 Y90.963
G0 X33.736 Y91.011
G1 F2400 E474.26916
G0 F7200 X83.531 Y42.934
G1 F2400 E478.76916
G1 F1125 X82.861 Y42.673 E478.81498
G1 X82.227 Y42.332 E478.86086
G1 X81.641 Y41.911 E478.90685
G1 X81.114 Y41.423 E478.95263
G1 X80.649 Y40.867 E478.99883
G1 X80.262 Y40.262 E479.0446
G1 X79.953 Y39.61 E479.09058
G1 X79.764 Y39.035 E479.12916
G1 X69.64 Y28.91 E480.04173
G1 X70.911 Y28.909 E480.12274
G1 X79.55 Y37.548 E480.90141
G1 X79.549 Y36.274 E480.98261
G1 X72.182 Y28.907 E481.64663
G1 X73.453 Y28.905 E481.72763
G1 X79.549 Y35.001 E482.27709
G1 X79.549 Y33.728 E482.35823
G1 X74.724 Y28.904 E482.79308
G1 X75.145 Y28.903 E482.81991
G1 X75.79 Y28.937 E482.86108
G1 X76.1 Y29.006 E482.88132
G1 X79.17 Y32.077 E483.15808
G0 F1012.5 X79.464 Y32.371
G0 F7200 X79.259 Y31.641
G1 F1125 X78.952 Y31.034 E483.20143
G1 X78.583 Y30.483 E483.2437
G1 X78.098 Y29.994 E483.28759
G1 X77.674 Y29.663 E483.32188
G1 X77.096 Y29.317 E483.36481
G1 X76.458 Y29.086 E483.40806
G1 X76.36 Y29.064 E483.41446
G0 F1012.5 X76.1 Y29.006
G1 F2400 E478.91446
G0 F90 X76.1 Y29.006 Z0.656
G0 F7200 X30.761 Y31.109
;TIME_ELAPSED:365.133277
;LAYER:-4
;TYPE:SUPPORT-INTERFACE
G1 F2400 E483.41446
G1 F1500 X30.824 Y30.987 E483.41708
G1 X31.201 Y30.444 E483.42968
G1 X31.694 Y29.953 E483.44294
G1 X32.11 Y29.638 E483.45289
G1 X32.405 Y29.466 E483.4594
G1 X30.761 Y31.109 E483.5037
G1 X30.508 Y31.599 E483.51422
G1 X30.4 Y31.966 E483.52151
G1 X33.265 Y29.1 E483.59876
G1 X33.694 Y28.979 E483.60725
G1 X33.9 Y28.96 E483.6112
G1 X30.26 Y32.601 E483.70934
G1 X30.2 Y33.156 E483.71998
G1 X34.443 Y28.912 E483.83437
G1 X34.947 Y28.904 E483.84398
G1 X30.2 Y33.651 E483.97195
G1 X30.2 Y34.146 E483.98139
G1 X35.44 Y28.905 E484.12266
G1 X35.933 Y28.907 E484.13206
G1 X30.2 Y34.641 E484.28662
G1 X30.2 Y35.136 E484.29606
G1 X36.426 Y28.91 E484.4639
G1 X36.919 Y28.912 E484.4733
G1 X30.2 Y35.631 E484.65443
G1 X30.2 Y36.126 E484.66387
G1 X37.413 Y28.913 E484.85831
G1 X37.905 Y28.915 E484.86769
G1 X30.2 Y36.621 E485.07542
G1 X30.2 Y37.116 E485.08485
G1 X38.398 Y28.917 E485.30587
G1 X38.892 Y28.919 E485.31529
G1 X30.2 Y37.611 E485.5496
G1 X30.2 Y38.105 E485.55902
G1 X39.385 Y28.921 E485.80662
G1 X39.877 Y28.923 E485.816
G1 X30.2 Y38.6 E486.07687
G1 X30.2 Y39.095 E486.08631
G1 X40.37 Y28.925 E486.36047
G1 X40.864 Y28.927 E486.36989
G1 X30.2 Y39.59 E486.65735
G1 X30.2 Y40.085 E486.66679
G1 X41.357 Y28.929 E486.96755
G1 X41.85 Y28.931 E486.97694
G1 X30.2 Y40.58 E487.29099
G1 X30.2 Y41.075 E487.30043
G1 X42.343 Y28.932 E487.62778
G1 X42.836 Y28.934 E487.63718
G1 X30.2 Y41.57 E487.97782
