;FLAVOR:Marlin
;TIME:8120
;Filament used: 4.43134m
;Layer height: 0.13125
;MINX:32.65
;MINY:28.65
;MINZ:0.306
;MAXX:87.35
;MAXY:91.35
;MAXZ:17.819
;Generated with Cura_SteamEngine 5.2.1
M140 S60
M105
M190 S60
M104 S205
M105
M109 S205
M82 ;absolute extrusion mode
G21;(metric values)
G90;(absolute positioning)
M82;(set extruder to absolute mode)
M107;(start with the fan off)
G28;(Home the printer)
G92 E0;(Reset the extruder to 0)
G0 Z5 E5 F500;(Move up and prime the nozzle)
G0 X-1 Z0;(Move outside the printable area)
G1 Y60 E8 F500;(Draw a priming/wiping line to the rear)
G1 X-1;(Move a little closer to the print area)
G1 Y10 E16 F500;(draw more priming/wiping)
G1 E15 F250;(Small retract)
G92 E0;(Zero the extruder)
G92 E0
G92 E0
G1 F2400 E-4.5
;LAYER_COUNT:129
;LAYER:-6
M107
G0 F7200 X33.17 Y31.145 Z0.306
;TYPE:SUPPORT-INTERFACE
G1 F2400 E0
G1 F1125 X32.875 Y31.815 E0.07451
G1 X32.689 Y32.649 E0.16147
G1 X32.65 Y33.325 E0.23039
G1 X32.65 Y33.461 E0.24423
G1 X32.65 Y86.733 E5.66604
G1 X32.729 Y87.592 E5.75384
G1 X32.919 Y88.278 E5.82628
G1 X33.148 Y88.811 E5.88532
G1 X33.439 Y89.308 E5.94394
G1 X33.877 Y89.88 E6.01726
G1 X34.528 Y90.461 E6.10607
G1 X35.145 Y90.83 E6.17924
G1 X35.695 Y91.07 E6.24031
G1 X36.243 Y91.228 E6.29836
G1 X36.826 Y91.321 E6.35844
G1 X37.325 Y91.35 E6.40931
G1 X82.731 Y91.35 E11.03056
G1 X83.601 Y91.27 E11.11948
G1 X84.271 Y91.082 E11.1903
G1 X84.811 Y90.851 E11.25008
G1 X85.31 Y90.561 E11.30882
G1 X85.882 Y90.123 E11.38214
G1 X86.461 Y89.474 E11.47066
G1 X86.83 Y88.855 E11.544
G1 X87.124 Y88.185 E11.61847
G1 X87.311 Y87.351 E11.70546
G1 X87.35 Y86.675 E11.77437
G1 X87.35 Y33.267 E17.21002
G1 X87.271 Y32.408 E17.29782
G1 X87.081 Y31.722 E17.37026
G1 X86.852 Y31.189 E17.42931
G1 X86.561 Y30.692 E17.48792
G1 X86.121 Y30.119 E17.56145
G1 X85.472 Y29.539 E17.65004
G1 X84.855 Y29.17 E17.7232
G1 X84.305 Y28.93 E17.78428
G1 X83.757 Y28.772 E17.84232
G1 X83.174 Y28.679 E17.90241
G1 X82.675 Y28.65 E17.95328
G1 X37.269 Y28.65 E22.57452
G1 X36.399 Y28.73 E22.66344
G1 X35.729 Y28.918 E22.73427
G1 X35.189 Y29.149 E22.79404
G1 X34.69 Y29.439 E22.85278
G1 X34.118 Y29.877 E22.9261
G1 X33.538 Y30.526 E23.01469
G1 X33.303 Y30.921 E23.06147
G0 F1012.5 X33.17 Y31.145
G0 F7200 X33.135 Y32.484
G1 F1125 X36.497 Y29.122 E23.54537
G0 F7200 X38.832 Y29.05
G1 F1125 X33.05 Y34.832 E24.37759
G0 F7200 X33.05 Y37.094
G1 F1125 X41.094 Y29.05 E25.53539
G0 F7200 X43.357 Y29.05
G1 F1125 X33.05 Y39.357 E27.01891
G0 F7200 X33.05 Y41.62
G1 F1125 X45.62 Y29.05 E28.82815
G0 F7200 X47.883 Y29.05
G1 F1125 X33.05 Y43.883 E30.9631
G0 F7200 X33.05 Y46.145
G1 F1125 X50.145 Y29.05 E33.42364
G0 F7200 X52.408 Y29.05
G1 F1125 X33.05 Y48.408 E36.20989
G0 F7200 X33.05 Y50.671
G1 F1125 X54.671 Y29.05 E39.32187
G0 F7200 X56.934 Y29.05
G1 F1125 X33.05 Y52.934 E42.75957
G0 F7200 X33.05 Y55.196
G1 F1125 X59.196 Y29.05 E46.52284
G0 F7200 X61.459 Y29.05
G1 F1125 X33.05 Y57.459 E50.61183
G0 F7200 X33.05 Y59.722
G1 F1125 X63.722 Y29.05 E55.02655
G0 F7200 X65.985 Y29.05
G1 F1125 X33.05 Y61.984 E59.76691
G0 F7200 X33.05 Y64.247
G1 F1125 X68.247 Y29.05 E64.83292
G0 F7200 X70.51 Y29.05
G1 F1125 X33.05 Y66.51 E70.22465
G0 F7200 X33.05 Y68.773
G1 F1125 X72.773 Y29.05 E75.9421
G0 F7200 X75.036 Y29.05
G1 F1125 X33.05 Y71.035 E81.9852
G0 F7200 X33.05 Y73.298
G1 F1125 X77.298 Y29.05 E88.35395
G0 F7200 X79.561 Y29.05
G1 F1125 X33.05 Y75.561 E95.04842
G0 F7200 X33.05 Y77.824
G1 F1125 X81.824 Y29.05 E102.06861
G0 F7200 X83.906 Y29.23
G1 F1125 X33.05 Y80.086 E109.38846
G0 F7200 X33.05 Y82.349
G1 F1125 X85.394 Y30.005 E116.92249
G0 F7200 X86.419 Y31.243
G1 F1125 X33.05 Y84.612 E124.60405
G0 F7200 X33.064 Y86.86
G1 F1125 X86.922 Y33.002 E132.356
G0 F7200 X86.948 Y35.239
G1 F1125 X33.526 Y88.661 E140.04519
G0 F7200 X34.526 Y89.924
G1 F1125 X86.948 Y37.502 E147.59045
G0 F7200 X86.948 Y39.764
G1 F1125 X35.978 Y90.735 E154.92678
G0 F7200 X38.026 Y90.949
G1 F1125 X86.948 Y42.027 E161.96827
G0 F7200 X86.948 Y44.29
G1 F1125 X40.289 Y90.949 E168.68405
G0 F7200 X42.552 Y90.949
G1 F1125 X86.948 Y46.553 E175.0741
G0 F7200 X86.948 Y48.815
G1 F1125 X44.815 Y90.949 E181.1385
G0 F7200 X47.077 Y90.949
G1 F1125 X86.948 Y51.078 E186.87725
G0 F7200 X86.948 Y53.341
G1 F1125 X49.34 Y90.949 E192.29028
G0 F7200 X51.603 Y90.949
G1 F1125 X86.948 Y55.604 E197.3776
G0 F7200 X86.948 Y57.866
G1 F1125 X53.865 Y90.949 E202.13933
G0 F7200 X56.128 Y90.949
G1 F1125 X86.948 Y60.129 E206.57535
G0 F7200 X86.948 Y62.392
G1 F1125 X58.391 Y90.949 E210.68564
G0 F7200 X60.654 Y90.949
G1 F1125 X86.948 Y64.655 E214.47022
G0 F7200 X86.948 Y66.917
G1 F1125 X62.916 Y90.949 E217.92922
G0 F7200 X65.179 Y90.949
G1 F1125 X86.948 Y69.18 E221.06249
G0 F7200 X86.948 Y71.443
G1 F1125 X67.442 Y90.949 E223.87005
G0 F7200 X69.705 Y90.949
G1 F1125 X86.948 Y73.705 E226.35196
G0 F7200 X86.948 Y75.968
G1 F1125 X71.967 Y90.949 E228.50822
G0 F7200 X74.23 Y90.949
G1 F1125 X86.948 Y78.231 E230.33876
G0 F7200 X86.948 Y80.494
G1 F1125 X76.493 Y90.949 E231.84358
G0 F7200 X78.756 Y90.949
M104 S200
G1 F1125 X86.948 Y82.756 E233.02275
G0 F7200 X86.948 Y85.019
G1 F1125 X81.018 Y90.949 E233.87627
G0 F7200 X83.338 Y90.892
G1 F1125 X86.906 Y87.324 E234.38983
G1 F2400 E229.88983
G0 F90 X86.906 Y87.324 Z0.525
G0 F7200 X36.186 Y90.916
;TIME_ELAPSED:154.904412
;LAYER:-5
;TYPE:SUPPORT
G1 F2400 E234.38983
G1 F1125 X35.414 Y90.641 E234.44206
G1 X34.71 Y90.221 E234.49431
G1 X34.206 Y89.773 E234.53729
G1 X33.835 Y89.348 E234.57324
G1 X33.534 Y88.898 E234.60775
G1 X33.238 Y88.3 E234.65027
G1 X33.106 Y87.836 E234.68102
G1 X36.186 Y90.916 E234.95863
G1 X36.86 Y91.023 E235.00213
G1 X37.591 Y91.049 E235.04875
G1 X32.949 Y86.407 E235.46715
G1 X32.949 Y85.134 E235.54829
G1 X38.864 Y91.049 E236.08143
G1 X40.137 Y91.049 E236.16257
G1 X32.949 Y83.861 E236.81045
G1 X32.949 Y82.588 E236.89159
G1 X41.41 Y91.049 E237.65422
G1 X42.683 Y91.049 E237.73535
G1 X32.949 Y81.315 E238.61272
G1 X32.949 Y80.043 E238.69379
G1 X43.955 Y91.049 E239.68581
G1 X45.228 Y91.049 E239.76695
G1 X32.949 Y78.77 E240.87371
G1 X32.949 Y77.497 E240.95484
G1 X46.501 Y91.049 E242.17635
G1 X47.774 Y91.049 E242.25748
G1 X32.949 Y76.224 E243.59372
G1 X32.949 Y74.951 E243.67486
G1 X49.047 Y91.049 E245.12584
G1 X50.319 Y91.049 E245.20691
G1 X32.949 Y73.679 E246.77255
G1 X32.949 Y72.406 E246.85369
G1 X51.592 Y91.049 E248.53406
G1 X52.865 Y91.049 E248.6152
G1 X32.949 Y71.133 E250.41032
G1 X32.949 Y69.86 E250.49145
G1 X54.138 Y91.049 E252.40131
G1 X55.411 Y91.049 E252.48245
G1 X32.949 Y68.587 E254.50705
G1 X32.949 Y67.315 E254.58812
G1 X56.683 Y91.049 E256.72737
G1 X57.956 Y91.049 E256.80851
G1 X32.949 Y66.042 E259.0625
G1 X32.949 Y64.769 E259.14363
G1 X59.229 Y91.049 E261.51237
G1 X60.502 Y91.049 E261.5935
G1 X32.949 Y63.496 E264.07698
G1 X32.949 Y62.223 E264.15811
G1 X61.774 Y91.049 E266.75629
G1 X63.047 Y91.049 E266.83742
G1 X32.949 Y60.951 E269.55029
G1 X32.949 Y59.678 E269.63142
G1 X64.32 Y91.049 E272.45904
G1 X65.593 Y91.049 E272.54017
G1 X32.949 Y58.405 E275.48252
G1 X32.949 Y57.132 E275.56366
G1 X66.866 Y91.049 E278.62075
G1 X68.138 Y91.049 E278.70182
G1 X32.949 Y55.86 E281.87356
G1 X32.949 Y54.587 E281.9547
G1 X69.411 Y91.049 E285.24118
G1 X70.684 Y91.049 E285.32232
G1 X32.949 Y53.314 E288.72354
G1 X32.949 Y52.041 E288.80468
G1 X71.957 Y91.049 E292.32064
G1 X73.23 Y91.049 E292.40178
G1 X32.949 Y50.768 E296.03249
G1 X32.949 Y49.496 E296.11356
G1 X74.502 Y91.049 E299.85892
G1 X75.775 Y91.049 E299.94005
G1 X32.949 Y48.223 E303.80015
G1 X32.949 Y46.95 E303.88129
G1 X77.048 Y91.049 E307.85613
G1 X78.321 Y91.049 E307.93726
G1 X32.949 Y45.677 E312.02685
G1 X32.949 Y44.404 E312.10798
G1 X79.594 Y91.049 E316.31231
G1 X80.866 Y91.049 E316.39338
G1 X32.949 Y43.132 E320.71235
G1 X32.949 Y41.859 E320.79349
G1 X82.139 Y91.049 E325.22721
G1 X82.703 Y91.049 E325.26315
G1 X83.353 Y90.99 E325.30475
G1 X32.949 Y40.586 E329.84789
G1 X32.949 Y39.313 E329.92902
G1 X84.355 Y90.719 E334.56248
G1 X84.688 Y90.577 E334.58555
G1 X85.191 Y90.282 E334.62272
G1 X32.949 Y38.04 E339.33153
G1 X32.949 Y36.768 E339.4126
G1 X85.87 Y89.688 E344.18256
G1 X86.218 Y89.296 E344.21597
G1 X86.417 Y88.963 E344.24069
G1 X32.949 Y35.495 E349.06001
G1 X32.949 Y34.222 E349.14114
G1 X86.819 Y88.092 E353.99669
G1 X86.914 Y87.824 E354.01481
G1 X87.039 Y87.039 E354.06547
G1 X32.959 Y32.959 E358.93995
G1 X33.084 Y32.174 E358.99061
G1 X33.179 Y31.906 E359.00873
G1 X87.049 Y85.776 E363.86428
G1 X87.049 Y84.503 E363.94541
G1 X33.576 Y31.03 E368.76518
G1 X33.866 Y30.607 E368.79786
G1 X34.129 Y30.311 E368.8231
G1 X87.049 Y83.23 E373.59297
G1 X87.049 Y81.957 E373.67411
G1 X34.808 Y29.716 E378.38283
G1 X35.31 Y29.422 E378.4199
G1 X35.643 Y29.279 E378.443
G1 X87.049 Y80.685 E383.07646
G1 X87.049 Y79.412 E383.15759
G1 X36.645 Y29.009 E387.70069
G1 X37.294 Y28.949 E387.74223
G1 X37.859 Y28.949 E387.77824
G1 X87.049 Y78.139 E392.21195
G1 X87.049 Y76.866 E392.29309
G1 X39.131 Y28.949 E396.61211
G1 X40.404 Y28.949 E396.69324
G1 X87.049 Y75.593 E400.89752
G1 X87.049 Y74.321 E400.97859
G1 X41.677 Y28.949 E405.06818
G1 X42.95 Y28.949 E405.14931
G1 X87.049 Y73.048 E409.12416
G1 X87.049 Y71.775 E409.20529
G1 X44.223 Y28.949 E413.06539
G1 X45.495 Y28.949 E413.14646
G1 X87.049 Y70.502 E416.89187
G1 X87.049 Y69.229 E416.973
G1 X46.768 Y28.949 E420.60366
G1 X48.041 Y28.949 E420.6848
G1 X87.049 Y67.957 E424.20077
G1 X87.049 Y66.684 E424.2819
G1 X49.314 Y28.949 E427.68313
G1 X50.587 Y28.949 E427.76426
G1 X87.049 Y65.411 E431.05075
G1 X87.049 Y64.138 E431.13188
G1 X51.859 Y28.949 E434.30367
G1 X53.132 Y28.949 E434.3848
G1 X87.049 Y62.866 E437.4419
G1 X87.049 Y61.593 E437.52303
G1 X54.405 Y28.949 E440.46538
G1 X55.678 Y28.949 E440.54652
G1 X87.049 Y60.32 E443.37413
G1 X87.049 Y59.047 E443.45526
G1 X56.951 Y28.949 E446.16813
G1 X58.223 Y28.949 E446.2492
G1 X87.049 Y57.774 E448.84737
G1 X87.049 Y56.502 E448.92844
G1 X59.496 Y28.949 E451.41192
G1 X60.769 Y28.949 E451.49305
G1 X87.049 Y55.229 E453.86179
G1 X87.049 Y53.956 E453.94292
G1 X62.042 Y28.949 E456.19692
G1 X63.315 Y28.949 E456.27805
G1 X87.049 Y52.683 E458.41731
G1 X87.049 Y51.41 E458.49844
G1 X64.587 Y28.949 E460.523
G1 X65.86 Y28.949 E460.60413
G1 X87.049 Y50.138 E462.51399
G1 X87.049 Y48.865 E462.59513
G1 X67.133 Y28.949 E464.39024
G1 X68.406 Y28.949 E464.47138
G1 X87.049 Y47.592 E466.15176
G1 X87.049 Y46.319 E466.23289
G1 X69.679 Y28.949 E467.79853
G1 X70.951 Y28.949 E467.8796
G1 X87.049 Y45.046 E469.33054
G1 X87.049 Y43.774 E469.41161
G1 X72.224 Y28.949 E470.74785
G1 X73.497 Y28.949 E470.82899
G1 X87.049 Y42.501 E472.05049
G1 X87.049 Y41.228 E472.13163
G1 X74.77 Y28.949 E473.23839
G1 X76.042 Y28.949 E473.31946
G1 X87.049 Y39.955 E474.31152
G1 X87.049 Y38.682 E474.39266
G1 X77.315 Y28.949 E475.26998
G1 X78.588 Y28.949 E475.35112
G1 X87.049 Y37.41 E476.11375
G1 X87.049 Y36.137 E476.19488
G1 X79.861 Y28.949 E476.84277
G1 X81.134 Y28.949 E476.9239
G1 X87.049 Y34.864 E477.45705
G1 X87.049 Y33.591 E477.53818
G1 X82.406 Y28.949 E477.95663
G1 X83.138 Y28.975 E478.00331
G1 X83.401 Y29.018 E478.0203
G0 F1012.5 X83.813 Y29.083
G1 F2400 E473.5203
G0 F90 X83.813 Y29.083 Z0.656
G0 F7200 X33.324 Y31.517
;TIME_ELAPSED:360.097058
;LAYER:-4
;TYPE:SUPPORT-INTERFACE
G1 F2400 E478.0203
G1 F1500 X33.566 Y31.046 E478.03039
G1 X33.866 Y30.607 E478.04053
G1 X34.225 Y30.206 E478.05079
G1 X34.742 Y29.754 E478.06388
G1 X35.31 Y29.422 E478.07642
G1 X35.501 Y29.339 E478.08039
G1 X33.315 Y31.526 E478.13933
G1 X33.084 Y32.174 E478.15245
G1 X33.069 Y32.266 E478.15422
G1 X36.256 Y29.079 E478.24014
G1 X36.84 Y28.99 E478.2514
G1 X32.977 Y32.854 E478.35555
G1 X32.949 Y33.376 E478.36552
G1 X37.376 Y28.949 E478.48486
G1 X37.871 Y28.949 E478.4943
G1 X32.949 Y33.871 E478.62698
G1 X32.949 Y34.366 E478.63642
G1 X38.366 Y28.949 E478.78245
G1 X38.861 Y28.949 E478.79189
G1 X32.949 Y34.861 E478.95126
G1 X32.949 Y35.356 E478.9607
G1 X39.356 Y28.949 E479.13342
G1 X39.851 Y28.949 E479.14285
G1 X32.949 Y35.851 E479.32892
G1 X32.949 Y36.346 E479.33835
G1 X40.346 Y28.949 E479.53776
G1 X40.841 Y28.949 E479.5472
G1 X32.949 Y36.841 E479.75995
G1 X32.949 Y37.336 E479.76939
G1 X41.336 Y28.949 E479.99549
G1 X41.831 Y28.949 E480.00492
G1 X32.949 Y37.831 E480.24436
G1 X32.949 Y38.326 E480.2538
G1 X42.326 Y28.949 E480.50658
G1 X42.821 Y28.949 E480.51602
G1 X32.949 Y38.821 E480.78215
G1 X32.949 Y39.316 E480.79158
G1 X43.316 Y28.949 E481.07106
G1 X43.811 Y28.949 E481.08049
G1 X32.949 Y39.811 E481.37331
G1 X32.949 Y40.306 E481.38275
G1 X44.306 Y28.949 E481.68891
G1 X44.801 Y28.949 E481.69835
G1 X32.949 Y40.801 E482.01785
G1 X32.949 Y41.296 E482.02729
G1 X45.296 Y28.949 E482.36014
G1 X45.791 Y28.949 E482.36958
G1 X32.949 Y41.791 E482.71577
G1 X32.949 Y42.286 E482.72521
G1 X46.286 Y28.949 E483.08475
G1 X46.781 Y28.949 E483.09418
G1 X32.949 Y42.781 E483.46707
G1 X32.949 Y43.276 E483.4765
G1 X47.276 Y28.949 E483.86273
G1 X47.771 Y28.949 E483.87217
G1 X32.949 Y43.771 E484.27174
G1 X32.949 Y44.266 E484.28117
G1 X48.266 Y28.949 E484.69409
G1 X48.761 Y28.949 E484.70353
G1 X32.949 Y44.761 E485.12979
G1 X32.949 Y45.256 E485.13922
G1 X49.256 Y28.949 E485.57883
G1 X49.751 Y28.949 E485.58826
G1 X32.949 Y45.751 E486.04121
G1 X32.949 Y46.246 E486.05065
G1 X50.246 Y28.949 E486.51694
G1 X50.741 Y28.949 E486.52638
G1 X32.949 Y46.741 E487.00601
G1 X32.949 Y47.236 E487.01545
G1 X51.236 Y28.949 E487.50843
G1 X51.731 Y28.949 E487.51787
G1 X32.949 Y47.731 E488.02419
G1 X32.949 Y48.226 E488.03363
G1 X52.226 Y28.949 E488.5533
G1 X52.721 Y28.949 E488.56274
G1 X32.949 Y48.721 E489.09575
G1 X32.949 Y49.216 E489.10519
G1 X53.216 Y28.949 E489.65154
G1 X53.711 Y28.949 E489.66098
G1 X32.949 Y49.711 E490.22068
G1 X32.949 Y50.205 E490.2301
G1 X54.206 Y28.949 E490.80313
G1 X54.701 Y28.949 E490.81257
G1 X32.949 Y50.7 E491.39895
G1 X32.949 Y51.195 E491.40838
G1 X55.196 Y28.949 E492.0081
G1 X55.691 Y28.949 E492.01754
G1 X32.949 Y51.69 E492.63061
G1 X32.949 Y52.185 E492.64004
G1 X56.185 Y28.949 E493.26644
G1 X56.68 Y28.949 E493.27588
G1 X32.949 Y52.68 E493.91562
G1 X32.949 Y53.175 E493.92505
G1 X57.175 Y28.949 E494.57814
G1 X57.67 Y28.949 E494.58757
G1 X32.949 Y53.67 E495.254
G1 X32.949 Y54.165 E495.26344
G1 X58.165 Y28.949 E495.94321
G1 X58.66 Y28.949 E495.95265
G1 X32.949 Y54.66 E496.64577
G1 X32.949 Y55.155 E496.6552
G1 X59.155 Y28.949 E497.36167
G1 X59.65 Y28.949 E497.3711
G1 X32.949 Y55.65 E498.09091
G1 X32.949 Y56.145 E498.10034
G1 X60.145 Y28.949 E498.83349
G1 X60.64 Y28.949 E498.84293
G1 X32.949 Y56.64 E499.58943
G1 X32.949 Y57.135 E499.59886
G1 X61.135 Y28.949 E500.3587
G1 X61.63 Y28.949 E500.36814
G1 X32.949 Y57.63 E501.14132
G1 X32.949 Y58.125 E501.15076
G1 X62.125 Y28.949 E501.93728
G1 X62.62 Y28.949 E501.94672
G1 X32.949 Y58.62 E502.74659
G1 X32.949 Y59.115 E502.75603
G1 X63.115 Y28.949 E503.56924
G1 X63.61 Y28.949 E503.57868
G1 X32.949 Y59.61 E504.40524
G1 X32.949 Y60.105 E504.41468
G1 X64.105 Y28.949 E505.25458
G1 X64.6 Y28.949 E505.26402
G1 X32.949 Y60.6 E506.11727
G1 X32.949 Y61.095 E506.1267
G1 X65.095 Y28.949 E506.9933
G1 X65.59 Y28.949 E507.00273
G1 X32.949 Y61.59 E507.88267
G1 X32.949 Y62.085 E507.8921
G1 X66.085 Y28.949 E508.78539
G1 X66.58 Y28.949 E508.79482
G1 X32.949 Y62.58 E509.70145
G1 X32.949 Y63.075 E509.71088
G1 X67.075 Y28.949 E510.63085
G1 X67.57 Y28.949 E510.64029
G1 X32.949 Y63.57 E511.5736
G1 X32.949 Y64.065 E511.58304
G1 X68.065 Y28.949 E512.5297
G1 X68.56 Y28.949 E512.53913
G1 X32.949 Y64.56 E513.49914
G1 X32.949 Y65.055 E513.50857
G1 X69.055 Y28.949 E514.48192
G1 X69.55 Y28.949 E514.49136
G1 X32.949 Y65.55 E515.47805
G1 X32.949 Y66.045 E515.48748
G1 X70.045 Y28.949 E516.48752
G1 X70.54 Y28.949 E516.49695
G1 X32.949 Y66.54 E517.51033
G1 X32.949 Y67.035 E517.51977
G1 X71.035 Y28.949 E518.54649
G1 X71.53 Y28.949 E518.55593
G1 X32.949 Y67.53 E519.596
G1 X32.949 Y68.025 E519.60543
G1 X72.025 Y28.949 E520.65885
G1 X72.52 Y28.949 E520.66828
G1 X32.949 Y68.52 E521.73504
G1 X32.949 Y69.015 E521.74447
G1 X73.015 Y28.949 E522.82458
G1 X73.51 Y28.949 E522.83401
G1 X32.949 Y69.51 E523.92746
G1 X32.949 Y70.004 E523.93687
G1 X74.005 Y28.949 E525.04365
G1 X74.5 Y28.949 E525.05308
G1 X32.949 Y70.499 E526.1732
G1 X32.949 Y70.994 E526.18264
G1 X74.995 Y28.949 E527.3161
