;FLAVOR:Marlin
;TIME:8863
;Filament used: 3.67116m
;Layer height: 0.13125
;MINX:9.153
;MINY:48.14
;MINZ:0.306
;MAXX:110.847
;MAXY:71.86
;MAXZ:20.832
;Generated with Cura_SteamEngine 5.2.1
M140 S60
M105
M190 S60
M104 S205
M105
M109 S205
M82 ;absolute extrusion mode
G21;(metric values)
G90;(absolute positioning)
M82;(set extruder to absolute mode)
M107;(start with the fan off)
G28;(Home the printer)
G92 E0;(Reset the extruder to 0)
G0 Z5 E5 F500;(Move up and prime the nozzle)
G0 X-1 Z0;(Move outside the printable area)
G1 Y60 E8 F500;(Draw a priming/wiping line to the rear)
G1 X-1;(Move a little closer to the print area)
G1 Y10 E16 F500;(draw more priming/wiping)
G1 E15 F250;(Small retract)
G92 E0;(Zero the extruder)
G92 E0
G92 E0
G1 F2400 E-4.5
;LAYER_COUNT:152
;LAYER:-6
M107
G0 F7200 X11.692 Y48.638 Z0.306
;TYPE:SUPPORT-INTERFACE
G1 F2400 E0
G1 F1125 X11.195 Y48.929 E0.05862
G1 X10.622 Y49.369 E0.13214
G1 X10.045 Y50.015 E0.2203
G1 X9.673 Y50.635 E0.29389
G1 X9.433 Y51.185 E0.35496
G1 X9.275 Y51.733 E0.41301
G1 X9.182 Y52.316 E0.47309
G1 X9.153 Y52.815 E0.52396
G1 X9.153 Y67.241 E1.99218
G1 X9.233 Y68.111 E2.0811
G1 X9.457 Y68.909 E2.16546
G1 X9.847 Y69.695 E2.25476
G1 X10.379 Y70.391 E2.34392
G1 X11.029 Y70.971 E2.43258
G1 X11.648 Y71.34 E2.50593
G1 X12.318 Y71.635 E2.58043
G1 X13.152 Y71.821 E2.6674
G1 X13.828 Y71.86 E2.73631
G1 X51.227 Y71.86 E6.54264
G1 X52.09 Y71.781 E6.63084
G1 X52.878 Y71.563 E6.71405
G1 X54.004 Y71.03 E6.84084
G1 X54.639 Y70.821 E6.90888
G1 X55.314 Y70.693 E6.9788
G1 X55.969 Y70.65 E7.04561
G1 X106.226 Y70.65 E12.16056
G1 X107.088 Y70.571 E12.24866
G1 X107.775 Y70.381 E12.32121
G1 X108.308 Y70.152 E12.38025
G1 X108.805 Y69.861 E12.43886
G1 X109.378 Y69.421 E12.51239
G1 X109.958 Y68.772 E12.60098
G1 X110.327 Y68.155 E12.67415
G1 X110.567 Y67.605 E12.73522
G1 X110.725 Y67.057 E12.79327
G1 X110.818 Y66.474 E12.85335
G1 X110.847 Y65.975 E12.90422
G1 X110.847 Y53.968 E14.12625
G1 X110.768 Y53.101 E14.21485
G1 X110.542 Y52.294 E14.30015
G1 X110.15 Y51.509 E14.38945
G1 X109.62 Y50.818 E14.47808
G1 X108.971 Y50.238 E14.56667
G1 X108.352 Y49.87 E14.63996
G1 X107.682 Y49.575 E14.71446
G1 X106.848 Y49.389 E14.80143
G1 X106.17 Y49.351 E14.87054
G1 X55.97 Y49.35 E19.9797
G1 X55.341 Y49.31 E20.04385
G1 X54.642 Y49.179 E20.11623
G1 X53.996 Y48.966 E20.18546
G1 X52.92 Y48.454 E20.30673
G1 X52.255 Y48.262 E20.37718
G1 X51.672 Y48.169 E20.43726
G1 X51.173 Y48.141 E20.48813
G1 X13.774 Y48.14 E24.29445
G1 X12.912 Y48.219 E24.38255
G1 X12.225 Y48.409 E24.45509
G1 X11.931 Y48.535 E24.48765
G0 F1012.5 X11.692 Y48.638
G0 F7200 X12.269 Y48.825
G1 F1125 X9.839 Y51.254 E24.83733
G0 F7200 X9.553 Y53.803
G1 F1125 X14.817 Y48.539 E25.595
G0 F7200 X17.08 Y48.539
G1 F1125 X9.553 Y56.066 E26.67838
G0 F7200 X9.553 Y58.329
G1 F1125 X19.342 Y48.539 E28.08741
G0 F7200 X21.605 Y48.539
G1 F1125 X9.553 Y60.591 E29.82209
G0 F7200 X9.553 Y62.854
G1 F1125 X23.868 Y48.539 E31.88249
G0 F7200 X26.131 Y48.539
G1 F1125 X9.553 Y65.117 E34.26862
G0 F7200 X9.566 Y67.366
G1 F1125 X28.393 Y48.539 E36.97844
G0 F7200 X30.656 Y48.539
G1 F1125 X10.031 Y69.164 E39.94706
G0 F7200 X11.025 Y70.432
G1 F1125 X32.918 Y48.54 E43.09812
G0 F7200 X35.181 Y48.54
G1 F1125 X12.464 Y71.257 E46.36784
G0 F7200 X14.524 Y71.459
G1 F1125 X37.444 Y48.54 E49.66671
G0 F7200 X39.706 Y48.54
G1 F1125 X16.787 Y71.459 E52.96552
G0 F7200 X19.05 Y71.459
G1 F1125 X41.969 Y48.54 E56.26432
G0 F7200 X44.232 Y48.54
G1 F1125 X21.312 Y71.459 E59.56319
G0 F7200 X23.575 Y71.459
G1 F1125 X46.495 Y48.54 E62.86206
G0 F7200 X48.757 Y48.54
G1 F1125 X25.838 Y71.459 E66.16086
G0 F7200 X28.101 Y71.459
G1 F1125 X51.02 Y48.54 E69.45966
G0 F7200 X52.924 Y48.898
G1 F1125 X30.363 Y71.459 E72.70694
G0 F7200 X32.626 Y71.459
G1 F1125 X54.525 Y49.561 E75.85885
G0 F7200 X56.598 Y49.749
G1 F1125 X34.889 Y71.459 E78.98357
G0 F7200 X37.152 Y71.459
G1 F1125 X58.861 Y49.749 E82.10828
G0 F7200 X61.124 Y49.749
G1 F1125 X39.414 Y71.459 E85.23307
G0 F7200 X41.677 Y71.459
G1 F1125 X63.387 Y49.749 E88.35785
G0 F7200 X65.649 Y49.749
G1 F1125 X43.94 Y71.459 E91.48257
G0 F7200 X46.203 Y71.459
G1 F1125 X67.912 Y49.749 E94.60728
G0 F7200 X70.175 Y49.749
G1 F1125 X48.465 Y71.459 E97.73207
G0 F7200 X50.728 Y71.459
G1 F1125 X72.438 Y49.749 E100.85685
G0 F7200 X74.7 Y49.749
G1 F1125 X53.736 Y70.714 E103.87434
G0 F7200 X56.463 Y70.25
G1 F1125 X76.963 Y49.749 E106.82503
G0 F7200 X79.226 Y49.749
G1 F1125 X58.725 Y70.25 E109.77581
G0 F7200 X60.988 Y70.25
G1 F1125 X81.488 Y49.75 E112.72643
G0 F7200 X83.751 Y49.75
G1 F1125 X63.251 Y70.25 E115.67706
G0 F7200 X65.514 Y70.25
G1 F1125 X86.013 Y49.75 E118.62761
G0 F7200 X88.276 Y49.75
G1 F1125 X67.776 Y70.25 E121.57824
G0 F7200 X70.039 Y70.25
G1 F1125 X90.539 Y49.75 E124.52887
G0 F7200 X92.802 Y49.75
G1 F1125 X72.302 Y70.25 E127.4795
G0 F7200 X74.565 Y70.25
G1 F1125 X95.064 Y49.75 E130.43005
G0 F7200 X97.327 Y49.75
G1 F1125 X76.827 Y70.25 E133.38068
G0 F7200 X79.09 Y70.25
G1 F1125 X99.59 Y49.75 E136.3313
G0 F7200 X101.853 Y49.75
G1 F1125 X81.353 Y70.25 E139.28193
G0 F7200 X83.616 Y70.25
G1 F1125 X104.115 Y49.75 E142.23249
G0 F7200 X106.366 Y49.762
G1 F1125 X85.878 Y70.25 E145.18139
G0 F7200 X88.141 Y70.25
G1 F1125 X108.166 Y50.225 E148.06364
G0 F7200 X109.427 Y51.227
G1 F1125 X90.404 Y70.25 E150.80168
G0 F7200 X92.667 Y70.25
G1 F1125 X110.233 Y52.683 E153.33008
G0 F7200 X110.445 Y54.734
G1 F1125 X94.929 Y70.25 E155.56335
G0 F7200 X97.192 Y70.25
G1 F1125 X110.445 Y56.997 E157.47089
G0 F7200 X110.445 Y59.259
G1 F1125 X99.455 Y70.25 E159.05279
G0 F7200 X101.718 Y70.25
M104 S200
G1 F1125 X110.445 Y61.522 E160.30896
G0 F7200 X110.445 Y63.785
G1 F1125 X103.98 Y70.25 E161.23949
G0 F7200 X106.247 Y70.246
G1 F1125 X110.44 Y66.052 E161.84307
G1 F2400 E157.34307
G0 F90 X110.44 Y66.052 Z0.525
G0 F7200 X107.012 Y49.736
;TIME_ELAPSED:116.864266
;LAYER:-5
;TYPE:SUPPORT
G1 F2400 E161.84307
G1 F1125 X107.316 Y49.784 E161.86269
G1 X108.081 Y50.058 E161.91448
G1 X108.786 Y50.478 E161.96678
G1 X109.29 Y50.925 E162.00972
G1 X109.741 Y51.443 E162.05349
G1 X110.074 Y52.011 E162.09545
G1 X110.294 Y52.523 E162.13097
G1 X110.488 Y53.212 E162.17659
G1 X107.012 Y49.736 E162.4899
G1 X106.471 Y49.648 E162.52483
G1 X105.653 Y49.65 E162.57697
G1 X110.546 Y54.543 E163.018
G1 X110.546 Y55.816 E163.09913
G1 X104.38 Y49.65 E163.6549
G1 X103.107 Y49.65 E163.73603
G1 X110.546 Y57.088 E164.4065
G1 X110.546 Y58.361 E164.48763
G1 X101.834 Y49.65 E165.27284
G1 X100.561 Y49.65 E165.35398
G1 X110.546 Y59.634 E166.25392
G1 X110.546 Y60.907 E166.33506
G1 X99.289 Y49.65 E167.3497
G1 X98.016 Y49.65 E167.43084
G1 X110.546 Y62.18 E168.56022
G1 X110.546 Y63.452 E168.64129
G1 X96.743 Y49.65 E169.88537
G1 X95.47 Y49.65 E169.96651
G1 X110.546 Y64.725 E171.32533
G1 X110.545 Y65.997 E171.4064
G1 X94.197 Y49.65 E172.87988
G1 X92.925 Y49.65 E172.96095
G1 X110.394 Y67.119 E174.53551
G1 X110.274 Y67.53 E174.5628
G1 X110.044 Y68.042 E174.59857
G1 X91.652 Y49.65 E176.25632
G1 X90.379 Y49.65 E176.33746
G1 X109.53 Y68.801 E178.06362
G1 X109.27 Y69.094 E178.08859
G1 X108.885 Y69.429 E178.12112
G1 X89.106 Y49.65 E179.90389
G1 X87.833 Y49.65 E179.98502
G1 X108.098 Y69.915 E181.8116
G1 X107.671 Y70.098 E181.84121
G1 X107.154 Y70.243 E181.87543
G1 X86.561 Y49.65 E183.73157
G1 X85.288 Y49.65 E183.8127
G1 X105.987 Y70.349 E185.6784
G1 X104.714 Y70.349 E185.75953
G1 X84.015 Y49.65 E187.62523
G1 X82.742 Y49.65 E187.70636
G1 X103.441 Y70.349 E189.57206
G1 X102.169 Y70.349 E189.65313
G1 X81.47 Y49.65 E191.51882
G1 X80.197 Y49.65 E191.59996
G1 X100.896 Y70.349 E193.46565
G1 X99.623 Y70.349 E193.54678
G1 X78.924 Y49.65 E195.41248
G1 X77.651 Y49.65 E195.49361
G1 X98.35 Y70.349 E197.35931
G1 X97.077 Y70.349 E197.44044
G1 X76.378 Y49.65 E199.30614
G1 X75.106 Y49.65 E199.38721
G1 X95.805 Y70.349 E201.2529
G1 X94.532 Y70.349 E201.33404
G1 X73.833 Y49.65 E203.19973
G1 X72.56 Y49.65 E203.28087
G1 X93.259 Y70.349 E205.14656
G1 X91.986 Y70.349 E205.22769
G1 X71.287 Y49.65 E207.09339
G1 X70.014 Y49.65 E207.17452
G1 X90.714 Y70.349 E209.04026
G1 X89.441 Y70.349 E209.1214
G1 X68.742 Y49.65 E210.98709
G1 X67.469 Y49.65 E211.06823
G1 X88.168 Y70.349 E212.93392
G1 X86.895 Y70.349 E213.01505
G1 X66.196 Y49.65 E214.88075
G1 X64.923 Y49.65 E214.96188
G1 X85.622 Y70.349 E216.82758
G1 X84.35 Y70.349 E216.90865
G1 X63.65 Y49.65 E218.77439
G1 X62.378 Y49.65 E218.85546
G1 X83.077 Y70.349 E220.72115
G1 X81.804 Y70.349 E220.80229
G1 X61.105 Y49.65 E222.66798
G1 X59.832 Y49.65 E222.74912
G1 X80.531 Y70.349 E224.61481
G1 X79.258 Y70.349 E224.69595
G1 X58.559 Y49.65 E226.56164
G1 X57.286 Y49.65 E226.64277
G1 X77.986 Y70.349 E228.50851
G1 X76.713 Y70.349 E228.58965
G1 X56.014 Y49.65 E230.45534
G1 X55.276 Y49.605 E230.50247
G1 X54.56 Y49.469 E230.54892
G1 X75.44 Y70.349 E232.43092
G1 X74.167 Y70.349 E232.51206
G1 X52.405 Y48.587 E234.47357
G1 X51.637 Y48.466 E234.52312
G1 X50.985 Y48.44 E234.56471
G1 X72.894 Y70.349 E236.53946
G1 X71.622 Y70.349 E236.62053
G1 X49.713 Y48.44 E238.59529
G1 X48.44 Y48.44 E238.67643
G1 X70.349 Y70.349 E240.65118
G1 X69.076 Y70.349 E240.73232
G1 X47.167 Y48.44 E242.70708
G1 X45.894 Y48.44 E242.78821
G1 X67.803 Y70.349 E244.76297
G1 X66.53 Y70.349 E244.8441
G1 X44.621 Y48.44 E246.81886
G1 X43.349 Y48.44 E246.89993
G1 X65.258 Y70.349 E248.87469
G1 X63.985 Y70.349 E248.95582
G1 X42.076 Y48.44 E250.93058
G1 X40.803 Y48.44 E251.01171
G1 X62.712 Y70.349 E252.98647
G1 X61.439 Y70.349 E253.0676
G1 X39.53 Y48.44 E255.04236
G1 X38.258 Y48.44 E255.12343
G1 X60.167 Y70.349 E257.09819
G1 X58.894 Y70.349 E257.17932
G1 X36.985 Y48.44 E259.15408
G1 X35.712 Y48.44 E259.23522
G1 X57.621 Y70.349 E261.20997
G1 X56.348 Y70.349 E261.29111
G1 X34.439 Y48.44 E263.26586
G1 X33.166 Y48.44 E263.347
G1 X55.144 Y70.417 E265.32793
G1 X54.566 Y70.528 E265.36544
G1 X54.126 Y70.672 E265.39495
G1 X31.893 Y48.439 E267.39891
G1 X30.62 Y48.439 E267.48004
G1 X53.24 Y71.059 E269.51889
G1 X52.788 Y71.274 E269.55079
G1 X52.316 Y71.407 E269.58204
G1 X29.347 Y48.439 E271.6523
G1 X28.074 Y48.439 E271.73343
G1 X51.194 Y71.559 E273.81734
G1 X49.921 Y71.559 E273.89848
G1 X26.802 Y48.439 E275.98234
G1 X25.529 Y48.439 E276.06348
G1 X48.648 Y71.559 E278.14734
G1 X47.376 Y71.559 E278.22841
G1 X24.256 Y48.439 E280.31232
G1 X22.983 Y48.439 E280.39346
G1 X46.103 Y71.559 E282.47737
G1 X44.83 Y71.559 E282.5585
G1 X21.711 Y48.439 E284.64237
G1 X20.438 Y48.439 E284.7235
G1 X43.557 Y71.559 E286.80736
G1 X42.284 Y71.559 E286.8885
G1 X19.165 Y48.439 E288.97236
G1 X17.892 Y48.439 E289.0535
G1 X41.012 Y71.559 E291.13741
G1 X39.739 Y71.559 E291.21854
G1 X16.619 Y48.439 E293.30245
G1 X15.347 Y48.439 E293.38352
G1 X38.466 Y71.559 E295.46739
G1 X37.193 Y71.559 E295.54852
G1 X14.05 Y48.415 E297.63455
G1 X12.884 Y48.522 E297.70918
G1 X35.921 Y71.559 E299.78561
G1 X34.648 Y71.559 E299.86674
G1 X11.931 Y48.842 E301.91433
G1 X11.245 Y49.244 E301.965
G1 X11.146 Y49.33 E301.97336
G1 X33.375 Y71.559 E303.97696
G1 X32.102 Y71.559 E304.0581
G1 X10.48 Y49.937 E306.00699
G1 X9.962 Y50.692 E306.06534
G1 X30.829 Y71.559 E307.94618
G1 X29.557 Y71.559 E308.02725
G1 X9.618 Y51.62 E309.82444
G1 X9.565 Y51.801 E309.83646
G1 X9.478 Y52.349 E309.87183
G1 X9.457 Y52.732 E309.89627
G1 X28.284 Y71.559 E311.59324
G1 X27.011 Y71.559 E311.67437
G1 X9.452 Y54 E313.25704
G1 X9.452 Y55.273 E313.33818
G1 X25.738 Y71.559 E314.80611
G1 X24.465 Y71.559 E314.88724
G1 X9.452 Y56.545 E316.24048
G1 X9.452 Y57.818 E316.32161
G1 X23.193 Y71.559 E317.56015
G1 X21.92 Y71.559 E317.64128
G1 X9.452 Y59.091 E318.76508
G1 X9.452 Y60.364 E318.84622
G1 X20.647 Y71.559 E319.85527
G1 X19.374 Y71.559 E319.93641
G1 X9.452 Y61.637 E320.83072
G1 X9.452 Y62.909 E320.91179
G1 X18.101 Y71.559 E321.69141
G1 X16.829 Y71.559 E321.77248
G1 X9.452 Y64.182 E322.4374
G1 X9.452 Y65.455 E322.51854
G1 X15.556 Y71.559 E323.06872
G1 X14.283 Y71.559 E323.14985
G1 X9.452 Y66.728 E323.58529
G1 X9.452 Y67.218 E323.61652
G1 X9.534 Y68.083 E323.6719
G1 X12.913 Y71.461 E323.97642
G1 X12.683 Y71.425 E323.99126
G1 X11.916 Y71.151 E324.04317
G1 X11.212 Y70.731 E324.09541
G1 X10.709 Y70.282 E324.13839
G1 X10.337 Y69.857 E324.17439
G1 X10.038 Y69.408 E324.20877
G1 X9.926 Y69.181 E324.2249
G0 F1012.5 X9.741 Y68.808
G1 F2400 E319.7249
G0 F90 X9.741 Y68.808 Z0.656
G0 F7200 X9.779 Y51.101
;TIME_ELAPSED:253.818906
;LAYER:-4
;TYPE:SUPPORT-INTERFACE
G1 F2400 E324.2249
G1 F1500 X10.074 Y50.529 E324.23717
G1 X10.371 Y50.096 E324.24718
G1 X10.728 Y49.694 E324.25743
G1 X11.245 Y49.244 E324.27049
G1 X11.813 Y48.911 E324.28304
G1 X12.087 Y48.793 E324.28873
G1 X9.766 Y51.114 E324.3513
G1 X9.564 Y51.812 E324.36515
G1 X12.827 Y48.549 E324.45311
G1 X13.396 Y48.474 E324.46405
G1 X9.476 Y52.395 E324.56974
G1 X9.453 Y52.913 E324.57963
G1 X13.927 Y48.438 E324.70025
G1 X14.422 Y48.438 E324.70969
G1 X9.453 Y53.408 E324.84365
G1 X9.453 Y53.903 E324.85309
G1 X14.917 Y48.438 E325.0004
G1 X15.412 Y48.438 E325.00984
G1 X9.453 Y54.398 E325.1705
G1 X9.453 Y54.893 E325.17993
G1 X15.907 Y48.438 E325.35393
G1 X16.402 Y48.438 E325.36337
G1 X9.453 Y55.388 E325.55071
G1 X9.453 Y55.883 E325.56015
G1 X16.897 Y48.438 E325.76084
G1 X17.392 Y48.438 E325.77027
G1 X9.453 Y56.378 E325.98431
G1 X9.453 Y56.873 E325.99374
G1 X17.887 Y48.438 E326.22112
G1 X18.382 Y48.438 E326.23056
G1 X9.453 Y57.368 E326.47128
G1 X9.453 Y57.863 E326.48071
G1 X18.877 Y48.438 E326.73478
G1 X19.372 Y48.438 E326.74422
G1 X9.453 Y58.358 E327.01163
G1 X9.453 Y58.853 E327.02106
G1 X19.867 Y48.438 E327.30182
G1 X20.362 Y48.438 E327.31125
G1 X9.453 Y59.348 E327.60535
G1 X9.453 Y59.843 E327.61479
G1 X20.857 Y48.438 E327.92223
G1 X21.352 Y48.438 E327.93167
G1 X9.453 Y60.338 E328.25245
G1 X9.453 Y60.833 E328.26189
G1 X21.847 Y48.438 E328.59602
G1 X22.342 Y48.438 E328.60546
G1 X9.453 Y61.328 E328.95293
G1 X9.453 Y61.823 E328.96237
G1 X22.837 Y48.438 E329.32319
G1 X23.332 Y48.438 E329.33262
G1 X9.453 Y62.318 E329.70679
G1 X9.453 Y62.813 E329.71622
G1 X23.827 Y48.438 E330.10373
G1 X24.322 Y48.438 E330.11317
G1 X9.453 Y63.307 E330.51401
G1 X9.453 Y63.802 E330.52344
G1 X24.817 Y48.438 E330.93762
G1 X25.312 Y48.438 E330.94706
G1 X9.453 Y64.297 E331.37459
G1 X9.453 Y64.792 E331.38402
G1 X25.807 Y48.438 E331.8249
G1 X26.302 Y48.438 E331.83433
G1 X9.453 Y65.287 E332.28855
G1 X9.453 Y65.782 E332.29798
G1 X26.797 Y48.438 E332.76554
G1 X27.292 Y48.438 E332.77498
G1 X9.453 Y66.277 E333.25588
G1 X9.453 Y66.772 E333.26532
G1 X27.787 Y48.438 E333.75957
G1 X28.282 Y48.438 E333.769
G1 X9.456 Y67.264 E334.27652
G1 X9.498 Y67.717 E334.28519
G1 X28.777 Y48.438 E334.80491
G1 X29.272 Y48.438 E334.81435
G1 X9.555 Y68.155 E335.34588
G1 X9.665 Y68.54 E335.35351
G1 X29.767 Y48.438 E335.89542
G1 X30.262 Y48.438 E335.90486
G1 X9.791 Y68.909 E336.45672
G1 X9.955 Y69.24 E336.46376
G1 X30.757 Y48.438 E337.02454
G1 X31.251 Y48.438 E337.03396
G1 X10.136 Y69.554 E337.60319
G1 X10.334 Y69.851 E337.60999
G1 X31.746 Y48.438 E338.18723
G1 X32.241 Y48.438 E338.19667
G1 X10.564 Y70.116 E338.78105
G1 X10.806 Y70.369 E338.78773
G1 X32.736 Y48.439 E339.37892
G1 X33.231 Y48.439 E339.38835
G1 X11.067 Y70.603 E339.98585
G1 X11.351 Y70.814 E339.99259
G1 X33.726 Y48.439 E340.59578
G1 X34.221 Y48.439 E340.60522
G1 X11.661 Y70.999 E341.21339
G1 X11.981 Y71.174 E341.22034
G1 X34.716 Y48.439 E341.83323
G1 X35.211 Y48.439 E341.84267
G1 X12.345 Y71.305 E342.45909
G1 X12.714 Y71.431 E342.46652
G1 X35.706 Y48.439 E343.08634
G1 X36.201 Y48.439 E343.09578
G1 X13.141 Y71.499 E343.71743
G1 X13.589 Y71.546 E343.72602
G1 X36.696 Y48.439 E344.34894
G1 X37.19 Y48.439 E344.35835
G1 X14.071 Y71.559 E344.98161
G1 X14.566 Y71.559 E344.99105
G1 X37.685 Y48.439 E345.6143
G1 X38.18 Y48.439 E345.62374
G1 X15.061 Y71.559 E346.247
G1 X15.556 Y71.559 E346.25643
G1 X38.675 Y48.439 E346.87969
G1 X39.17 Y48.439 E346.88912
G1 X16.051 Y71.559 E347.51238
G1 X16.546 Y71.559 E347.52182
G1 X39.665 Y48.439 E348.14507
G1 X40.16 Y48.439 E348.15451
G1 X17.041 Y71.559 E348.77776
G1 X17.536 Y71.559 E348.7872
G1 X40.655 Y48.439 E349.41046
G1 X41.15 Y48.439 E349.41989
G1 X18.031 Y71.559 E350.04315
G1 X18.526 Y71.559 E350.05258
G1 X41.645 Y48.439 E350.67584
G1 X42.14 Y48.439 E350.68528
G1 X19.021 Y71.559 E351.30853
G1 X19.516 Y71.559 E351.31797
